public/img/clients/wellcast.svg

<svg width="200" height="100" viewBox="0 0 200 100" fill="none" xmlns="http://www.w3.org/2000/svg">
<path fill-rule="evenodd" clip-rule="evenodd" d="M98.848 14.2629C90.908 14.2629 84.471 20.7429 84.471 28.7379C84.471 32.8249 86.544 36.5199 89.101 39.5759C92.739 43.9219 97.157 47.6889 98.848 53.2859C100.538 47.6889 104.958 43.9219 108.594 39.5759C111.152 36.5199 113.224 32.8259 113.224 28.7379H113.226C113.226 20.7439 106.789 14.2629 98.849 14.2629H98.848ZM108.023 28.5899C107.753 30.4969 106.761 32.2449 105.503 33.7039C103.593 35.9179 101.178 37.7379 99.016 39.6979C98.969 39.7409 98.908 39.7629 98.848 39.7629C98.788 39.7629 98.728 39.7409 98.678 39.6979C96.518 37.7379 94.102 35.9179 92.193 33.7039C90.935 32.2439 89.943 30.4969 89.673 28.5899C89.313 26.0459 90.397 23.3369 93.015 22.5379C95.275 21.8479 98.031 23.0579 98.848 25.3299C99.664 23.0579 102.418 21.8479 104.681 22.5379C107.301 23.3379 108.384 26.0459 108.024 28.5899H108.023ZM49.724 51.8719H54.637L49.783 82.9019H45.325L42.657 65.8299L40.165 82.9029H35.687L30.491 51.8729H35.396L37.848 68.4889L40.1 51.8699H45.003L47.453 68.4739L49.723 51.8699L49.724 51.8719ZM57.528 82.9029V51.8469H70.852V56.5519H62.208V65.0219H68.524V69.7279H62.208V78.1979H70.852V82.9029H57.528ZM85.78 82.9029H73.024V51.8729H77.704V78.2469H85.778V82.9029H85.78ZM100.707 82.9029H87.952V51.8729H92.632V78.2469H100.707V82.9029ZM110.31 83.2999C108.246 83.2999 106.49 82.5769 105.047 81.1319C103.601 79.6879 102.88 77.9419 102.88 75.8939V58.9539C102.88 56.8909 103.606 55.1369 105.06 53.6919C106.512 52.2479 108.262 51.5249 110.31 51.5249C112.373 51.5249 114.123 52.2519 115.56 53.7049C116.996 55.1579 117.714 56.9079 117.714 58.9549V62.4949H112.86V58.8549C112.86 58.1129 112.596 57.4779 112.068 56.9489C111.538 56.4189 110.904 56.1549 110.161 56.1549C109.419 56.1549 108.787 56.4189 108.267 56.9479C107.747 57.4759 107.487 58.1109 107.487 58.8539V75.8439C107.487 76.5859 107.747 77.2169 108.267 77.7369C108.787 78.2569 109.419 78.5169 110.162 78.5169C110.906 78.5169 111.542 78.2569 112.07 77.7369C112.598 77.2169 112.862 76.5849 112.862 75.8419V71.5599H117.716V75.8939C117.716 77.9579 116.99 79.7079 115.536 81.1439C114.084 82.5809 112.342 83.2989 110.312 83.2989L110.31 83.2999ZM125.353 75.7699L124.216 82.9029H119.343L124.618 51.8729H131.058L136.258 82.9029H131.336L130.241 75.7699H125.354H125.353ZM127.813 58.9799L126.079 71.2129H129.545L127.812 58.9799H127.813ZM153.215 75.1759C153.248 77.3389 152.687 79.1879 151.531 80.7239C150.773 81.7639 149.701 82.4989 148.313 82.9279C147.57 83.1579 146.703 83.2739 145.713 83.2739C143.88 83.2739 142.361 82.8209 141.156 81.9119C140.148 81.1699 139.352 80.1579 138.766 78.8789C138.18 77.5989 137.836 76.1329 137.738 74.4819L142.196 74.1599C142.394 75.9699 142.872 77.2799 143.632 78.0939C144.195 78.7079 144.838 78.9989 145.565 78.9639C146.589 78.9339 147.405 78.4279 148.017 77.4539C148.33 76.9739 148.487 76.2879 148.487 75.3959C148.487 74.1059 147.901 72.8259 146.729 71.5539L142.569 67.6119C141.017 66.1089 139.919 64.7619 139.274 63.5719C138.581 62.2339 138.234 60.7789 138.234 59.2089C138.234 56.3829 139.184 54.2419 141.084 52.7889C142.254 51.9129 143.708 51.4749 145.442 51.4749C147.108 51.4749 148.537 51.8449 149.726 52.5889C150.65 53.1669 151.396 53.9759 151.966 55.0159C152.536 56.0559 152.879 57.2529 152.996 58.6059L148.512 59.4239C148.38 58.1539 148.017 57.1619 147.422 56.4539C146.992 55.9409 146.374 55.6839 145.565 55.6839C144.707 55.6839 144.055 56.0639 143.608 56.8239C143.245 57.4339 143.064 58.1939 143.064 59.1039C143.064 60.5219 143.674 61.9669 144.897 63.4359C145.357 63.9979 146.052 64.6579 146.977 65.4159C148.067 66.3259 148.784 66.9619 149.132 67.3239C150.286 68.4799 151.178 69.6199 151.806 70.7419C152.103 71.2719 152.342 71.7569 152.524 72.2019C152.97 73.3099 153.201 74.2999 153.217 75.1749L153.215 75.1759ZM160.366 56.5769H155.389V51.8719H170V56.5769H165.047V82.9029H160.367V56.5769H160.366Z" fill="black"/>
</svg>

<svg xmlns="http://www.w3.org/2000/svg" focusable="false" role="img" viewBox="0 0 200 100" fill="currentColor">
  <path fill-rule="evenodd" d="M98.848 14.263c-7.94 0-14.377 6.48-14.377 14.475 0 4.087 2.073 7.782 4.63 10.838 3.638 4.346 8.056 8.113 9.747 13.71 1.69-5.597 6.11-9.364 9.746-13.71 2.558-3.056 4.63-6.75 4.63-10.838h.002c0-7.994-6.437-14.475-14.377-14.475h-.001zm9.175 14.327c-.27 1.907-1.262 3.655-2.52 5.114-1.91 2.214-4.325 4.034-6.487 5.994a.25.25 0 01-.338 0c-2.16-1.96-4.576-3.78-6.485-5.994-1.258-1.46-2.25-3.207-2.52-5.114-.36-2.544.724-5.253 3.342-6.052 2.26-.69 5.016.52 5.833 2.792.816-2.272 3.57-3.482 5.833-2.792 2.62.8 3.703 3.508 3.343 6.052h-.001zM49.724 51.872h4.913l-4.854 31.03h-4.458L42.657 65.83l-2.492 17.073h-4.478l-5.196-31.03h4.905l2.452 16.616L40.1 51.87h4.903l2.45 16.604 2.27-16.604.001.002zm7.804 31.031V51.847h13.324v4.705h-8.644v8.47h6.316v4.706h-6.316v8.47h8.644v4.705H57.528zm28.252 0H73.024v-31.03h4.68v26.374h8.074v4.656h.002zm14.927 0H87.952v-31.03h4.68v26.374h8.075v4.656zm9.603.397c-2.064 0-3.82-.723-5.263-2.168-1.446-1.444-2.167-3.19-2.167-5.238v-16.94c0-2.063.726-3.817 2.18-5.262 1.452-1.444 3.202-2.167 5.25-2.167 2.063 0 3.813.727 5.25 2.18 1.436 1.453 2.154 3.203 2.154 5.25v3.54h-4.854v-3.64c0-.742-.264-1.377-.792-1.906a2.597 2.597 0 00-1.907-.794c-.742 0-1.374.264-1.894.793a2.618 2.618 0 00-.78 1.906v16.99c0 .742.26 1.373.78 1.893s1.152.78 1.895.78c.744 0 1.38-.26 1.908-.78a2.56 2.56 0 00.792-1.895V71.56h4.854v4.334c0 2.064-.726 3.814-2.18 5.25-1.452 1.437-3.194 2.155-5.224 2.155l-.002.001zm15.043-7.53l-1.137 7.133h-4.873l5.275-31.03h6.44l5.2 31.03h-4.922l-1.095-7.133h-4.888zm2.46-16.79l-1.734 12.233h3.466l-1.733-12.233h.001zm25.402 16.196c.033 2.163-.528 4.012-1.684 5.548-.758 1.04-1.83 1.775-3.218 2.204-.743.23-1.61.346-2.6.346-1.833 0-3.352-.453-4.557-1.362-1.008-.742-1.804-1.754-2.39-3.033-.586-1.28-.93-2.746-1.028-4.397l4.458-.322c.198 1.81.676 3.12 1.436 3.934.563.614 1.206.905 1.933.87 1.024-.03 1.84-.536 2.452-1.51.313-.48.47-1.166.47-2.058 0-1.29-.586-2.57-1.758-3.842l-4.16-3.942c-1.552-1.503-2.65-2.85-3.295-4.04-.693-1.338-1.04-2.793-1.04-4.363 0-2.826.95-4.967 2.85-6.42 1.17-.876 2.624-1.314 4.358-1.314 1.666 0 3.095.37 4.284 1.114.924.578 1.67 1.387 2.24 2.427.57 1.04.913 2.237 1.03 3.59l-4.484.818c-.132-1.27-.495-2.262-1.09-2.97-.43-.513-1.048-.77-1.857-.77-.858 0-1.51.38-1.957 1.14-.363.61-.544 1.37-.544 2.28 0 1.418.61 2.863 1.833 4.332.46.562 1.155 1.222 2.08 1.98 1.09.91 1.807 1.546 2.155 1.908 1.154 1.156 2.046 2.296 2.674 3.418a13.4 13.4 0 01.718 1.46c.446 1.108.677 2.098.693 2.973l-.002.001zm7.151-18.599h-4.977v-4.705H170v4.705h-4.953v26.326h-4.68V56.577h-.001z" clip-rule="evenodd"/>
</svg>
